!!!!SEGMENT: pl-sa--5-a-i-5--001_anonim--mazur.krn
!!!cenid: 18xx:645
!!!COM: Anonim
!!!COM-rismid: pe30004985
!!!CDT:
!!!CNT:
!!!OTL: Mazur
!!!PDT:
!!!AGN: Secular; Mazurka
!!!SMS-siglum: PL-SA
!!!SMS-shelfmark: 5/A I 5
!!!SMS-shelfwork: 001 W
!!!SMS-variant:
!!!SMS-altvar:
!!!NIFC-rismid: 1001065397
!!!URL-scan: http://bc.bdsandomierz.pl/dlibra/publication/1269/edition/1237/content
!!!ONB-nifc: Str. 1
!!!key:
**kern	**kern
*part2	*part1
*staff2	*staff1
*Iempty	*Iempty
*	*I"Keyboard
*	*I'keyb
*>[A,A,B,B,C,D,D,E,E,F,F,G,C,D,D,E,E,F,F,G]	*>[A,A,B,B,C,D,D,E,E,F,F,G,C,D,D,E,E,F,F,G]
*clefF4	*clefG2
*k[]	*k[]
*C:	*C:
*M3/8	*M3/8
*>A	*>A
!	!LO:TX:a:t=Mazur
8r	8ee\
=1	=1
8.G\ 8.E\ 8.C\	32ff\LLL
.	32ee\
.	32dd\
.	32ee\JJJ
.	8.cc\L
8.ryy	.
.	16gg\Jk
=2	=2
*rep	*
!LO:TX:a:t=P:problem=w źródle w całym utworze brak '2' nad znakiem repetycji	!
8.G\ 8.E\ 8.C\	32aa\LLL
.	32gg\
.	32ff#X\
.	32gg\JJJ
.	8.ee\L
8.ryy	.
.	16gg\Jk
*Xrep	*
=3	=3
8.G\ 8.D\ 8.BB\	16aa\LL
.	16gg\
.	16aa\
8.ryy	16gg\
.	16ff\
.	16dd\JJ
=4	=4
4G\ 4E\ 4C\	16ff\LL
.	16ee\
.	8qdd/
.	16cc\
.	16b\
8r	16cc\
.	16dd\JJ
=5||	=5||
8.G\ 8.E\ 8.C\	32ff\LLL
.	32ee\
.	32dd\
.	32ee\JJJ
.	8.cc\L
8.ryy	.
.	16gg\Jk
=6	=6
*rep	*
8.G\ 8.E\ 8.C\	32aa\LLL
.	32gg\
.	32ff#X\
.	32gg\JJJ
.	8.ee\L
8.ryy	.
.	16gg\Jk
*Xrep	*
=7	=7
8.G\ 8.D\ 8.BB\	16aa\LL
.	16gg\
.	16aa\
8.ryy	16gg\
.	16ff\
.	16dd\JJ
=8	=8
8.G\ 8.E\ 8.C\	16dd\LL
.	16cc\JJ
.	8cc\
16ryy	.
=:||:	=:||:
*>B	*>B
8r	8ee\
=9	=9
8.A\ 8.E\ 8.C#X\	16aa\
.	16r
.	8.aa\L
8.ryy	.
.	16gg\Jk
=10	=10
!LO:TX:a:t=P:problem=niejednoznaczny zapis 8.D\ - być może 8.C\	!
8.A\ 8.F#X\ 8.D\	32gg\LLL
.	32ff#X\
.	32ee\
.	32ff#\JJJ
.	4dd\
8.ryy	.
!!LO:LB:g=original
=11	=11
8.B\ 8.F#X\ 8.D#X\	16bb\
.	16r
.	8.bb\L
8.ryy	.
.	16aa\Jk
=12	=12
!LO:N:vis=4	!
8B\ 8G\ 8E#X\	8gg#X\
8r	8ggn\
=:||:	=:||:
*k[b-]	*k[b-]
*F:	*F:
*>C	*>C
!	!LO:TX:a:t=P:problem=w obu rękach bemole b- powinny znajdować się po kresce taktowej
8r	8ccc\
=13	=13
!	!LO:TUP:a:problem=klamra łukowa i numer
8C\L	24bb-\LL
.	24ccc\
.	24bb-\JJ
8B-\ 8G\ 8E\	4gg\
8B-\J 8G\ 8E\	.
=14	=14
*rep	*
!	!LO:TUP:a:problem=klamra łukowa i numer
8C\L	24bb-\LL
.	24ccc\
.	24bb-\JJ
8B-\ 8G\ 8E\	4gg\
8B-\J 8G\ 8E\	.
*Xrep	*
=15!|:	=15!|:
*>D	*>D
!	!LO:TUP:a:problem=klamra łukowa i numer
8C\L	24aa\LL
.	24bb-\
.	24aa\JJ
8A\ 8F\	8ff\L
.	8qeee/
8A\J 8F\	8fff\J
=16:|!|:	=16:|!|:
*>E	*>E
!	!LO:TUP:a:problem=klamra łukowa i numer
8C\L	24bb-\LL
.	24ccc\
.	24bb-\JJ
8B-\ 8G\ 8E\	4gg\
8B-\J 8G\ 8E\	.
=17:|!|:	=17:|!|:
*>F	*>F
!	!LO:TUP:a:problem=klamra łukowa i numer do t. 26
8C\L	24aa\LL
.	24bb-\
.	24aa\JJ
8A\ 8F\	8ff\L
.	8qeee/
8A\J 8F\	8fff\J
=18:|!	=18:|!
*>G	*>G
!	!LO:TUP:a
4A\ 4F\	24aa\LL
.	24bb-\
.	24aa\JJ
.	16ff\LL
.	16ee\
8r	16ff\
.	16aa\JJ
=19	=19
!LO:TX:a:t=P:problem=niejednoznacznie zapisana wysokość dźwięku, być może 8GG\L	!LO:TUP:a
8AA\L	24gg\LL
.	24aa\
.	24gg\JJ
8G\ 8E\ 8C#X\	4ee\
8G\J 8E\ 8C#\	.
=20	=20
!	!LO:TUP:a
8GG\L	24ff\LL
.	24gg\
.	24ff\JJ
8F\ 8D\	8dd\L
.	8qccc#X/
8F\J 8D\	8ddd\J
!!LO:LB:g=original
=21	=21
!LO:TX:a:t=P:problem=mixed beam	!LO:TUP:a
8C/L	24ee\LL
.	24ff\
.	24ee\JJ
8e\ 8c\ 8G\	8cc\L
.	8qbb-/
8e\J 8c\ 8G\	8ccc\J
=22	=22
!	!LO:TX:a:t=P:problem=przed 24bb-\LL skreślona główka nuty cc
!	!LO:TUP:a
8.B-\ 8.G\ 8.E\ 8.C\	24bb-\LL
.	24ccc\
.	24bb-\JJ
.	4gg\
8.ryy	.
=23	=23
!	!LO:TUP:a
8.A\ 8.F\ 8.C\	24aa\LL
!	!LO:TX:a:t=h
.	24bb-\
.	24aa\JJ
.	8ff\L
8.ryy	.
.	8qeee/
.	8fff\J
=24	=24
8.B-\ 8.G\ 8.E\ 8.C\	16eee\LL
.	16ddd\
.	16ccc\
8.ryy	16bb-\
.	16aa\
.	16gg\JJ
=25	=25
8.A\ 8.F\ 8.C\	16ff\LL
.	16gg\
.	16aa\
8.ryy	16bb-\
.	16ddd\
.	16ccc\JJ
=26	=26
!	!LO:TUP:a
8.B-\ 8.G\ 8.E\ 8.C\	24bb-\LL
.	24ccc\
.	24bb-\JJ
.	4gg\
8.ryy	.
=27	=27
*	*Xtuplet
8.A\ 8.F\ 8.C\	24aa\LL
.	24bb-\
.	24aa\JJ
.	8ff\L
8.ryy	.
.	8fff\J
=28	=28
8.B-\ 8.G\ 8.E\ 8.C\	16gg\LL
.	16aa\
.	16bb-\
8.ryy	16cc\
.	16dd\
.	16ee\JJ
=29	=29
8A\ 8F\	16gg\LL
.	16ff\JJ
4F/ 4C/ 4FF/	4ff\ 4a\
==	==
*-	*-
!!!system-decoration: [(s1,s2)]
!!!AIN: 2 empty
!!!ENC: Zofia Niedbalska
!!!END: 2020-12-18
!!!ENC: Marta Chmielewska
!!!END: 2020-06-19
